2 Export/Icons/Rounded/Exit.svg

<svg xmlns="http://www.w3.org/2000/svg" xmlns:xlink="http://www.w3.org/1999/xlink" width="24" height="24" viewBox="0 0 24 24">
  <defs>
    <path id="exit-a" d="M10.79 16.29c.39.39 1.02.39 1.41 0l3.59-3.59a.996.996 0 0 0 0-1.41L12.2 7.7a.996.996 0 1 0-1.41 1.41L12.67 11H4c-.55 0-1 .45-1 1s.45 1 1 1h8.67l-1.88 1.88c-.39.39-.38 1.03 0 1.41zM19 3H5a2 2 0 0 0-2 2v3c0 .55.45 1 1 1s1-.45 1-1V6c0-.55.45-1 1-1h12c.55 0 1 .45 1 1v12c0 .55-.45 1-1 1H6c-.55 0-1-.45-1-1v-2c0-.55-.45-1-1-1s-1 .45-1 1v3c0 1.1.9 2 2 2h14c1.1 0 2-.9 2-2V5c0-1.1-.9-2-2-2z"/>
  </defs>
  <g fill="none" fill-rule="evenodd">
    <polygon points="0 0 24 0 24 24 0 24"/>
    <mask id="exit-b" fill="#fff">
      <use xlink:href="#exit-a"/>
    </mask>
    <use fill="#000" xlink:href="#exit-a"/>
    <g fill="#000" mask="url(#exit-b)">
      <rect width="24" height="24"/>
    </g>
  </g>
</svg>

<svg xmlns="http://www.w3.org/2000/svg" xmlns:xlink="http://www.w3.org/1999/xlink" width="24" height="24" viewBox="0 0 24 24">
  <defs>
    <path id="exit-a" d="M10.79,16.29 C11.18,16.68 11.81,16.68 12.2,16.29 L15.79,12.7 C16.18,12.31 16.18,11.68 15.79,11.29 L12.2,7.7 C11.81,7.31 11.18,7.31 10.79,7.7 C10.4,8.09 10.4,8.72 10.79,9.11 L12.67,11 L4,11 C3.45,11 3,11.45 3,12 C3,12.55 3.45,13 4,13 L12.67,13 L10.79,14.88 C10.4,15.27 10.41,15.91 10.79,16.29 Z M19,3 L5,3 C3.89,3 3,3.9 3,5 L3,8 C3,8.55 3.45,9 4,9 C4.55,9 5,8.55 5,8 L5,6 C5,5.45 5.45,5 6,5 L18,5 C18.55,5 19,5.45 19,6 L19,18 C19,18.55 18.55,19 18,19 L6,19 C5.45,19 5,18.55 5,18 L5,16 C5,15.45 4.55,15 4,15 C3.45,15 3,15.45 3,16 L3,19 C3,20.1 3.9,21 5,21 L19,21 C20.1,21 21,20.1 21,19 L21,5 C21,3.9 20.1,3 19,3 Z"/>
  </defs>
  <g fill="none" fill-rule="evenodd">
    <polygon points="0 0 24 0 24 24 0 24"/>
    <mask id="exit-b" fill="#fff">
      <use xlink:href="#exit-a"/>
    </mask>
    <use fill="#000" xlink:href="#exit-a"/>
    <g fill="#000" mask="url(#exit-b)">
      <rect width="24" height="24"/>
    </g>
  </g>
</svg>
